X: 15
T:L'Autre Bout du Monde
M:3/4
L:1/4
C:Jean Blanchard
R:Waltz
Z:Steve Mansfield
K:G
d>ef/g/ | fed | cde | A3 | d>ef/g/ | fed |
cAB |1 G3 :|2 G2G/A/ |: BAc | Bdc | ee/d/e/=f/ |
edc | BAc | BdB | cc/B/A/G/ | =F2 :|

